images/icons/facebook.svg

<svg width="28" height="28" viewBox="0 0 28 28" fill="none" xmlns="http://www.w3.org/2000/svg">
<path d="M27.5769 4.88758C27.5769 2.51582 25.4842 0.423096 23.1124 0.423096H5.11494C2.74318 0.423096 0.650452 2.51582 0.650452 4.88758V22.8851C0.650452 25.2568 2.74318 27.3496 5.11494 27.3496H14.1834V17.1649H10.8351V12.7005H14.1834V10.8867C14.1834 7.81741 16.4157 5.16661 19.206 5.16661H22.8334V9.6311H19.206C18.7875 9.6311 18.3689 10.0497 18.3689 10.8867V12.7005H22.8334V17.1649H18.3689V27.3496H23.1124C25.4842 27.3496 27.5769 25.2568 27.5769 22.8851V4.88758Z" fill="white"/>
</svg>

<svg width="28" height="28" fill="none" xmlns="http://www.w3.org/2000/svg"><path d="M27.577 4.888c0-2.372-2.093-4.465-4.465-4.465H5.115C2.743.423.65 2.516.65 4.888v17.997c0 2.372 2.093 4.465 4.465 4.465h9.068V17.165h-3.348V12.7h3.348v-1.814c0-3.07 2.233-5.72 5.023-5.72h3.627V9.63h-3.627c-.418 0-.837.419-.837 1.256V12.7h4.464v4.465H18.37V27.35h4.743c2.372 0 4.465-2.093 4.465-4.465V4.888Z" fill="#fff"/></svg>
